X:1
T: Old Wife of Coverdale, The
C: Traditional, England
R: Slip Jig
L: 1/8
M: 9/8
K: Em
 "Em" EFE G2B BAG |"D(Bm)" FGF D2F AFD |"Em" EFE G2B BAG |
"D(Bm)" FGF DEF E3 :||: "Em" edc BAG F3 |"D" d3 F3 A3 |
"C" edc BAG F3 |1 "Bm" DEF "Em" E3 "D" F3 :|2 "D" DEF "Em" E3 E3 |]